static/images/content-creation-icon.svg

<svg height="173" viewBox="0 0 194 173" width="194" xmlns="http://www.w3.org/2000/svg"><g fill="#686868"><path d="m32.988 142.745123c-.6380357.006384-1.2517643-.244546-1.7024764-.696199s-.7003611-1.065903-.6927027-1.703924v-137.945c-.0076584-.63802074.2419906-1.25227127.6927027-1.70392433.4507121-.45165305 1.0644407-.70258254 1.7024764-.69619913h98.109c.638485-.00635912 1.252708.24441508 1.704208.69591529.4515.45150022.702275 1.06572335.695792 1.70420817v27.167h26.873c.638402-.0062077 1.252465.2446548 1.703905.6960948s.702303 1.0655028.696208 1.7039052v9.888c.006095.6384024-.244768 1.2524652-.696208 1.7039052s-1.065503.7023025-1.703905.6960948c-.638567.0067579-1.252951-.2439279-1.704512-.6954884-.45156-.4515606-.702246-1.0659443-.695488-1.7045116v-7.488h-26.879c-.638238.0056592-1.251981-.2453795-1.703301-.6966995-.451319-.4513199-.702358-1.0650629-.696699-1.7033005v-27.167h-93.3v135.545c-.0224932 1.317218-1.0857552 2.379152-2.403 2.400123z"/><path d="m140.696 172.887c-5.664 0-32.926-.192-59.324-.384-26.02-.192-50.494-.384-55.582-.384-11.615 0-18.238-3.552-22.848-12.191-4.8-9.023-2.3-19.2-2.207-19.583.27490215-1.052369 1.21267722-1.796065 2.3-1.824h118.936c.66165-.008553 1.294124.271897 1.732.768.417064.518217.652451 1.159032.67 1.824-.199215 3.680266.156433 7.36956 1.055 10.944 1.346 4.32 5.857 7.1 5.953 7.2.534891.330803.916363.860645 1.06041 1.472845s.038855 1.256551-.29241 1.791155c-.329338.537127-.859623.920413-1.472948 1.064637-.613326.144223-1.258853.037429-1.793052-.296637-.291-.192-6.049-3.744-7.965-9.792-.956163-3.305022-1.409903-6.735038-1.346-10.175h-114.428c-.383 2.976-.674 9.12 2.107 14.4 3.748 7.008 8.74 9.6 18.535 9.6 5.088 0 29.563.192 55.574.384 26.4.192 53.668.384 59.332.384 9.5 0 17.662-11.424 17.662-20.831v-52.8c-.007034-.6386498.243564-1.2531944.695185-1.7048155.451621-.451621 1.066165-.7022181 1.704815-.695352.638815-.0074189 1.253682.2430007 1.705425.694743.451742.4517423.702161 1.0666094.694742 1.7054245v52.8c0 11.613-9.980167 25.628-22.458167 25.628z"/><g transform="translate(51.233 90.139)"><path d="m15.838 4.8h-13.438c-.63848482.00648258-1.25270795-.24429162-1.70420817-.69579183-.45150021-.45150022-.70227441-1.06572335-.69591446-1.70420817-.00635995-.63848482.24441425-1.25270795.69591446-1.70420817.45150022-.45150021 1.06572335-.70227441 1.70420817-.69579183h13.438c.6384848-.00648258 1.252708.24429162 1.7042082.69579183.4515002.45150022.7022744 1.06572335.6959144 1.70420817.00636.63848482-.2444142 1.25270795-.6959144 1.70420817-.4515002.45150021-1.0657234.70227441-1.7042082.69579183z"/><path d="m48.479 4.8h-24c-.6384848.00648258-1.252708-.24429162-1.7042082-.69579183-.4515002-.45150022-.7022744-1.06572335-.6959144-1.70420817-.00636-.63848482.2444142-1.25270795.6959144-1.70420817.4515002-.45150021 1.0657234-.70227441 1.7042082-.69579183h24c.6384848-.00648258 1.252708.24429162 1.7042082.69579183.4515002.45150022.7022744 1.06572335.6959144 1.70420817.00636.63848482-.2444142 1.25270795-.6959144 1.70420817-.4515002.45150021-1.0657234.70227441-1.7042082.69579183z"/></g><g transform="translate(51.233 45.022)"><path d="m22.557 4.8h-20.157c-.63848482.00648258-1.25270795-.24429162-1.70420817-.69579183-.45150021-.45150022-.70227441-1.06572335-.69591446-1.70420817-.00608506-.63840238.24477745-1.2524652.69621744-1.70390519s1.06550281-.7023025 1.70390519-.69609481h20.157c.6384848-.00648258 1.252708.24429162 1.7042082.69579183.4515002.45150022.7022744 1.06572335.6959144 1.70420817.00636.63848482-.2444142 1.25270795-.6959144 1.70420817-.4515002.45150021-1.0657234.70227441-1.7042082.69579183z"/><path d="m84.956 4.8h-49.918c-.6384848.00648258-1.252708-.24429162-1.7042082-.69579183-.4515002-.45150022-.7022744-1.06572335-.6959144-1.70420817-.0060851-.63840238.2447774-1.2524652.6962174-1.70390519s1.0655028-.7023025 1.7039052-.69609481h49.919c.6384024-.00620769 1.2524652.24465482 1.7039052.69609481s.7023025 1.06550281.6962175 1.70390519c.0063644.63866005-.2445462 1.25303837-.6962644 1.70456844s-1.066201.70218476-1.7048583.69543156z"/></g><path d="m117.943 72.381h-64.314c-.6385673.0067579-1.252951-.2439279-1.7045116-.6954884-.4515605-.4515606-.7022463-1.0659443-.6956216-1.7045116-.0063494-.6384848.2444248-1.252708.695925-1.7042082s1.0657234-.7022744 1.7042082-.6957918h64.316c.638485-.0064826 1.252708.2442916 1.704208.6957918s.702275 1.0657234.695915 1.7042082c.006369.6388353-.244678 1.253369-.696615 1.7049289-.451936.45156-1.066678.7020951-1.705508.6950711z"/><path d="m98.744 117.498h-45.115c-.6384848.006483-1.252708-.244292-1.7042082-.695792s-.7022744-1.065723-.695925-1.704208c-.0066247-.638567.2440611-1.252951.6956216-1.704512.4515606-.45156 1.0659443-.702246 1.7045116-.695488h45.117c.6387324-.00731 1.2534382.243199 1.70512.69488.451681.451682.70219 1.066388.695036 1.70512.007164.639083-.243617 1.254101-.695735 1.705842-.452118.451742-1.0673439.702011-1.706421.694158z"/><path d="m182.268 59.901c-.641886.0098849-1.262266-.2312345-1.729-.672l-11.521-11.519c-.462169-.4365634-.724078-1.0442421-.724078-1.68s.261909-1.2434366.724078-1.68c.438058-.4598324 1.045409-.720075 1.6805-.720075s1.242442.2602426 1.6805.720075l11.518 11.519c.462169.4365634.724078 1.0442421.724078 1.68s-.261909 1.2434366-.724078 1.68c-.406777.4681708-1.010446.7171983-1.629.672z"/><path d="m169.783 83.9c-.642078.0092989-1.262557-.2317195-1.73-.672-.457937-.4388929-.716867-1.0457024-.716867-1.68s.25893-1.2411071.716867-1.68l21.123-21.119c.437708-.4597222 1.04473-.719925 1.6795-.719925s1.241792.2602028 1.6795.719925c.458724.4384619.718205 1.0454323.718205 1.68s-.259481 1.2415381-.718205 1.68l-21.123 21.119c-.406492.4685664-1.010369.7176794-1.629.672z"/><path d="m112.858 118.837c-.657179-.00846-1.282136-.286058-1.729-.768-.681669-.680867-.872726-1.712319-.479-2.592l8.443-21.407c.105433-.3118594.308888-.5812624.58-.768l57.594-57.6c.955417-.8636584 2.409583-.8636584 3.365 0l12.57 12.575c.460306.4375919.720901 1.044887.720901 1.68s-.260595 1.2424081-.720901 1.68l-59.42 59.421c-.240613.255479-.536498.452508-.865.576l-19.295 7.008c-.24489.098599-.501812.164174-.764.195zm10.459-22.463-6.33 16.031 13.824-4.992 57.3-57.309-9.215-9.216z"/><path d="m160.185 33.982c-.642.0105243-1.262613-.2306856-1.729-.672l-28.8-28.8c-.462169-.43656343-.724078-1.04424211-.724078-1.68s.261909-1.24343657.724078-1.68c.436187-.45986851 1.042172-.72030695 1.676-.72030695s1.239813.26043844 1.676.72030695l28.8 28.8c.460306.4375919.720901 1.044887.720901 1.68s-.260595 1.2424081-.720901 1.68c-.405942.4657626-1.006624.7144739-1.623.672z"/></g></svg>

<?xml version="1.0" encoding="UTF-8"?>
<svg width="194px" height="173px" viewBox="0 0 194 173" version="1.1" xmlns="http://www.w3.org/2000/svg" xmlns:xlink="http://www.w3.org/1999/xlink">
    <!-- Generator: Sketch 63.1 (92452) - https://sketch.com -->
    <title>con-doc</title>
    <desc>Created with Sketch.</desc>
    <g id="Page-1" stroke="none" stroke-width="1" fill="none" fill-rule="evenodd">
        <g id="con-doc" fill="#686868" fill-rule="nonzero">
            <g id="temp_1_">
                <path d="M32.988,142.745123 C32.3499643,142.751507 31.7362357,142.500577 31.2855236,142.048924 C30.8348115,141.597271 30.5851625,140.983021 30.5928209,140.345 L30.5928209,2.4 C30.5851625,1.76197926 30.8348115,1.14772873 31.2855236,0.696075672 C31.7362357,0.244422618 32.3499643,-0.00650686792 32.988,-0.000123463636 L131.097,-0.000123463636 C131.735485,-0.00648258222 132.349708,0.244291618 132.801208,0.695791833 C133.252708,1.14729205 133.503483,1.76151518 133.497,2.4 L133.497,29.567 L160.37,29.567 C161.008402,29.5607923 161.622465,29.8116548 162.073905,30.2630948 C162.525345,30.7145348 162.776208,31.3285976 162.770113,31.967 L162.770113,41.855 C162.776208,42.4934024 162.525345,43.1074652 162.073905,43.5589052 C161.622465,44.0103452 161.008402,44.2612077 160.37,44.255 C159.731433,44.2617579 159.117049,44.0110721 158.665488,43.5595116 C158.213928,43.107951 157.963242,42.4935673 157.97,41.855 L157.97,34.367 L131.091,34.367 C130.452762,34.3726592 129.839019,34.1216205 129.387699,33.6703005 C128.93638,33.2189806 128.685341,32.6052376 128.691,31.967 L128.691,4.8 L35.391,4.8 L35.391,140.345 C35.3685068,141.662218 34.3052448,142.724152 32.988,142.745123 L32.988,142.745123 Z" id="Path_15856"></path>
                <path d="M140.696,172.887 C135.032,172.887 107.77,172.695 81.372,172.503 C55.352,172.311 30.878,172.119 25.79,172.119 C14.175,172.119 7.552,168.567 2.942,159.928 C-1.858,150.905 0.642,140.728 0.735,140.345 C1.00990215,139.292631 1.94767722,138.548935 3.035,138.521 L121.971,138.521 C122.63265,138.512447 123.265124,138.792897 123.703,139.289 C124.120064,139.807217 124.355451,140.448032 124.373,141.113 C124.173785,144.793266 124.529433,148.48256 125.428,152.057 C126.774,156.377 131.285,159.157 131.381,159.257 C131.915891,159.587803 132.297363,160.117645 132.44141,160.729845 C132.585457,161.342045 132.480265,161.986396 132.149,162.521 C131.819662,163.058127 131.289377,163.441413 130.676052,163.585637 C130.062726,163.72986 129.417199,163.623066 128.883,163.289 C128.592,163.097 122.834,159.545 120.918,153.497 C119.961837,150.191978 119.508097,146.761962 119.572,143.322 L5.144,143.322 C4.761,146.298 4.47,152.442 7.251,157.722 C10.999,164.73 15.991,167.322 25.786,167.322 C30.874,167.322 55.349,167.514 81.36,167.706 C107.76,167.898 135.028,168.09 140.692,168.09 C150.192,168.09 158.354,156.666 158.354,147.259 L158.354,94.459 C158.346966,93.8203502 158.597564,93.2058056 159.049185,92.7541845 C159.500806,92.3025635 160.11535,92.0519664 160.754,92.0588325 C161.392815,92.0514136 162.007682,92.3018332 162.459425,92.7535755 C162.911167,93.2053178 163.161586,93.8201849 163.154167,94.459 L163.154167,147.259 C163.154167,158.872 153.174,172.887 140.696,172.887 Z" id="Path_15857"></path>
                <g id="Group_3544_1_" transform="translate(51.233000, 90.139000)">
                    <path d="M15.838,4.8 L2.4,4.8 C1.76151518,4.80648258 1.14729205,4.55570838 0.695791833,4.10420817 C0.244291618,3.65270795 -0.00648258222,3.03848482 -0.000122628651,2.4 C-0.00648258222,1.76151518 0.244291618,1.14729205 0.695791833,0.695791833 C1.14729205,0.244291618 1.76151518,-0.00648258222 2.4,5.68434189e-14 L15.838,5.68434189e-14 C16.4764848,-0.00648258222 17.090708,0.244291618 17.5422082,0.695791833 C17.9937084,1.14729205 18.2444826,1.76151518 18.2381226,2.4 C18.2444826,3.03848482 17.9937084,3.65270795 17.5422082,4.10420817 C17.090708,4.55570838 16.4764848,4.80648258 15.838,4.8 L15.838,4.8 Z" id="Path_15858"></path>
                    <path d="M48.479,4.8 L24.479,4.8 C23.8405152,4.80648258 23.226292,4.55570838 22.7747918,4.10420817 C22.3232916,3.65270795 22.0725174,3.03848482 22.0788774,2.4 C22.0725174,1.76151518 22.3232916,1.14729205 22.7747918,0.695791833 C23.226292,0.244291618 23.8405152,-0.00648258222 24.479,5.68434189e-14 L48.479,5.68434189e-14 C49.1174848,-0.00648258222 49.731708,0.244291618 50.1832082,0.695791833 C50.6347084,1.14729205 50.8854826,1.76151518 50.8791226,2.4 C50.8854826,3.03848482 50.6347084,3.65270795 50.1832082,4.10420817 C49.731708,4.55570838 49.1174848,4.80648258 48.479,4.8 L48.479,4.8 Z" id="Path_15859"></path>
                </g>
                <g id="Group_3545_1_" transform="translate(51.233000, 45.022000)">
                    <path d="M22.557,4.8 L2.4,4.8 C1.76151518,4.80648258 1.14729205,4.55570838 0.695791833,4.10420817 C0.244291618,3.65270795 -0.00648258222,3.03848482 -0.000122628651,2.4 C-0.00620769364,1.76159762 0.244654823,1.1475348 0.696094814,0.696094814 C1.1475348,0.244654823 1.76159762,-0.00620769363 2.4,1.13686838e-13 L22.557,1.13686838e-13 C23.1954848,-0.00648258222 23.809708,0.244291618 24.2612082,0.695791833 C24.7127084,1.14729205 24.9634826,1.76151518 24.9571226,2.4 C24.9634826,3.03848482 24.7127084,3.65270795 24.2612082,4.10420817 C23.809708,4.55570838 23.1954848,4.80648258 22.557,4.8 Z" id="Path_15860"></path>
                    <path d="M84.956,4.8 L35.038,4.8 C34.3995152,4.80648258 33.785292,4.55570838 33.3337918,4.10420817 C32.8822916,3.65270795 32.6315174,3.03848482 32.6378774,2.4 C32.6317923,1.76159762 32.8826548,1.1475348 33.3340948,0.696094814 C33.7855348,0.244654823 34.3995976,-0.00620769363 35.038,5.68434324e-14 L84.957,5.68434324e-14 C85.5954024,-0.00620769363 86.2094652,0.244654823 86.6609052,0.696094814 C87.1123452,1.1475348 87.3632077,1.76159762 87.3571227,2.4 C87.3634871,3.03866005 87.1125765,3.65303837 86.6608583,4.10456844 C86.2091401,4.55609851 85.5946573,4.8067532 84.956,4.8 Z" id="Path_15861"></path>
                </g>
                <path d="M117.943,72.381 L53.629,72.381 C52.9904327,72.3877579 52.376049,72.1370721 51.9244884,71.6855116 C51.4729279,71.233951 51.2222421,70.6195673 51.2288668,69.981 C51.2225174,69.3425152 51.4732916,68.728292 51.9247918,68.2767918 C52.376292,67.8252916 52.9905152,67.5745174 53.629,67.581 L117.945,67.581 C118.583485,67.5745174 119.197708,67.8252916 119.649208,68.2767918 C120.100708,68.728292 120.351483,69.3425152 120.345123,69.981 C120.351492,70.6198353 120.100445,71.234369 119.648508,71.6859289 C119.196572,72.1374889 118.58183,72.388024 117.943,72.381 Z" id="Path_15862"></path>
                <path d="M98.744,117.498 L53.629,117.498 C52.9905152,117.504483 52.376292,117.253708 51.9247918,116.802208 C51.4732916,116.350708 51.2225174,115.736485 51.2288668,115.098 C51.2222421,114.459433 51.4729279,113.845049 51.9244884,113.393488 C52.376049,112.941928 52.9904327,112.691242 53.629,112.698 L98.746,112.698 C99.3847324,112.69069 99.9994382,112.941199 100.45112,113.39288 C100.902801,113.844562 101.15331,114.459268 101.146156,115.098 C101.15332,115.737083 100.902539,116.352101 100.450421,116.803842 C99.998303,117.255584 99.3830771,117.505853 98.744,117.498 Z" id="Path_15863"></path>
                <path d="M182.268,59.901 C181.626114,59.9108849 181.005734,59.6697655 180.539,59.229 L169.018,47.71 C168.555831,47.2734366 168.293922,46.6657579 168.293922,46.03 C168.293922,45.3942421 168.555831,44.7865634 169.018,44.35 C169.456058,43.8901676 170.063409,43.629925 170.6985,43.629925 C171.333591,43.629925 171.940942,43.8901676 172.379,44.35 L183.897,55.869 C184.359169,56.3055634 184.621078,56.9132421 184.621078,57.549 C184.621078,58.1847579 184.359169,58.7924366 183.897,59.229 C183.490223,59.6971708 182.886554,59.9461983 182.268,59.901 L182.268,59.901 Z" id="Path_15864"></path>
                <path d="M169.783,83.9 C169.140922,83.9092989 168.520443,83.6682805 168.053,83.228 C167.595063,82.7891071 167.336133,82.1822976 167.336133,81.548 C167.336133,80.9137024 167.595063,80.3068929 168.053,79.868 L189.176,58.749 C189.613708,58.2892778 190.22073,58.029075 190.8555,58.029075 C191.49027,58.029075 192.097292,58.2892778 192.535,58.749 C192.993724,59.1874619 193.253205,59.7944323 193.253205,60.429 C193.253205,61.0635677 192.993724,61.6705381 192.535,62.109 L171.412,83.228 C171.005508,83.6965664 170.401631,83.9456794 169.783,83.9 L169.783,83.9 Z" id="Path_15865"></path>
                <path d="M112.858,118.837 C112.200821,118.82854 111.575864,118.550942 111.129,118.069 C110.447331,117.388133 110.256274,116.356681 110.65,115.477 L119.093,94.07 C119.198433,93.7581406 119.401888,93.4887376 119.673,93.302 L177.267,35.702 C178.222417,34.8383416 179.676583,34.8383416 180.632,35.702 L193.202,48.277 C193.662306,48.7145919 193.922901,49.321887 193.922901,49.957 C193.922901,50.592113 193.662306,51.1994081 193.202,51.637 L133.782,111.058 C133.541387,111.313479 133.245502,111.510508 132.917,111.634 L113.622,118.642 C113.37711,118.740599 113.120188,118.806174 112.858,118.837 L112.858,118.837 Z M123.317,96.374 L116.987,112.405 L130.811,107.413 L188.111,50.104 L178.896,40.888 L123.317,96.374 Z" id="Path_15866"></path>
                <path d="M160.185,33.982 C159.543,33.9925243 158.922387,33.7513144 158.456,33.31 L129.656,4.51 C129.193831,4.07343657 128.931922,3.46575789 128.931922,2.83 C128.931922,2.19424211 129.193831,1.58656343 129.656,1.15 C130.092187,0.690131492 130.698172,0.429693052 131.332,0.429693052 C131.965828,0.429693052 132.571813,0.690131492 133.008,1.15 L161.808,29.95 C162.268306,30.3875919 162.528901,30.994887 162.528901,31.63 C162.528901,32.265113 162.268306,32.8724081 161.808,33.31 C161.402058,33.7757626 160.801376,34.0244739 160.185,33.982 L160.185,33.982 Z" id="Path_15867"></path>
            </g>
        </g>
    </g>
</svg>
